X: 5747
T: Cahill's Stipulation
R: reel
M: 4/4
K: Gmajor
|:"G"DGBd "G/B"g2 gd|"C"egge "G/B"dBGd|"C"egge "G/B"dBGB|"Am" cAAG "D"FGEF|
"G"DGBd "G/B"g2 gd|"C"egge "G/B"dBGd|"C"egge "G/B"dBGA|1 "D"AGGF "G"G2GE:|2 "D"AGGF "G"G3B||
"A"~A3e "A/C#"ed^cB|"D"~A3 "D/F#"f fedB|"A" ~A3e "A/C#"ed^ce|"D"fdd^c d2dB|
"A"~A3e "A/C#"ed^cB|"D"~A3 "D/F#"f fedB|"A"~A3e "A/C#" edeg|"D"fdd^c d2dB|
"A"~A3e "A/C#"ed^cB|"D"~A3 "D/F#"f fedB|"A"~A3e "A/C#"edeg|"D"fdd^c d2dB|
"A"~A3e "A/C#"ed^cB|"D"~A3 "D/F#"f fedB|"A"A^ceg "A/C#"bge^c|"D"dfe^c "D/C"d=cAF!D.C.!||

